SF_Symbols/circle.grid.2x2.svg

<?xml version="1.0" encoding="UTF-8"?>
<svg xmlns="http://www.w3.org/2000/svg" xmlns:xlink="http://www.w3.org/1999/xlink" width="24" height="24" viewBox="0 0 24 24" version="1.1">
<g id="surface1">
<path style=" stroke:none;fill-rule:nonzero;fill:rgb(100%,100%,100%);fill-opacity:1;" d="M 5.554688 11.625 C 6.492188 11.625 7.34375 11.394531 8.109375 10.933594 C 8.882812 10.464844 9.5 9.84375 9.960938 9.070312 C 10.429688 8.296875 10.664062 7.445312 10.664062 6.515625 C 10.664062 5.585938 10.429688 4.734375 9.960938 3.960938 C 9.5 3.1875 8.882812 2.570312 8.109375 2.109375 C 7.34375 1.648438 6.492188 1.417969 5.554688 1.417969 C 4.617188 1.417969 3.761719 1.648438 2.988281 2.109375 C 2.214844 2.570312 1.597656 3.1875 1.136719 3.960938 C 0.675781 4.734375 0.445312 5.585938 0.445312 6.515625 C 0.445312 7.445312 0.675781 8.296875 1.136719 9.070312 C 1.597656 9.84375 2.214844 10.464844 2.988281 10.933594 C 3.761719 11.394531 4.617188 11.625 5.554688 11.625 Z M 5.554688 9.773438 C 4.9375 9.773438 4.382812 9.628906 3.890625 9.339844 C 3.398438 9.050781 3.003906 8.660156 2.707031 8.167969 C 2.417969 7.675781 2.273438 7.125 2.273438 6.515625 C 2.273438 5.90625 2.417969 5.351562 2.707031 4.851562 C 3.003906 4.351562 3.398438 3.953125 3.890625 3.65625 C 4.382812 3.359375 4.9375 3.210938 5.554688 3.210938 C 6.164062 3.210938 6.714844 3.359375 7.207031 3.65625 C 7.707031 3.953125 8.101562 4.351562 8.390625 4.851562 C 8.679688 5.351562 8.824219 5.90625 8.824219 6.515625 C 8.824219 7.125 8.679688 7.675781 8.390625 8.167969 C 8.101562 8.660156 7.707031 9.050781 7.207031 9.339844 C 6.714844 9.628906 6.164062 9.773438 5.554688 9.773438 Z M 18.457031 11.625 C 19.386719 11.625 20.238281 11.394531 21.011719 10.933594 C 21.785156 10.464844 22.402344 9.84375 22.863281 9.070312 C 23.324219 8.296875 23.554688 7.445312 23.554688 6.515625 C 23.554688 5.585938 23.324219 4.734375 22.863281 3.960938 C 22.402344 3.1875 21.785156 2.570312 21.011719 2.109375 C 20.238281 1.648438 19.386719 1.417969 18.457031 1.417969 C 17.511719 1.417969 16.652344 1.648438 15.878906 2.109375 C 15.105469 2.570312 14.488281 3.1875 14.027344 3.960938 C 13.574219 4.734375 13.347656 5.585938 13.347656 6.515625 C 13.347656 7.445312 13.574219 8.296875 14.027344 9.070312 C 14.488281 9.84375 15.105469 10.464844 15.878906 10.933594 C 16.652344 11.394531 17.511719 11.625 18.457031 11.625 Z M 18.457031 9.773438 C 17.839844 9.773438 17.28125 9.628906 16.78125 9.339844 C 16.289062 9.050781 15.898438 8.660156 15.609375 8.167969 C 15.320312 7.675781 15.175781 7.125 15.175781 6.515625 C 15.175781 5.90625 15.320312 5.351562 15.609375 4.851562 C 15.898438 4.351562 16.289062 3.953125 16.78125 3.65625 C 17.28125 3.359375 17.839844 3.210938 18.457031 3.210938 C 19.066406 3.210938 19.617188 3.359375 20.109375 3.65625 C 20.601562 3.953125 20.992188 4.351562 21.28125 4.851562 C 21.578125 5.351562 21.726562 5.90625 21.726562 6.515625 C 21.726562 7.125 21.578125 7.675781 21.28125 8.167969 C 20.992188 8.660156 20.601562 9.050781 20.109375 9.339844 C 19.617188 9.628906 19.066406 9.773438 18.457031 9.773438 Z M 5.554688 23.671875 C 6.492188 23.671875 7.34375 23.441406 8.109375 22.980469 C 8.882812 22.519531 9.5 21.902344 9.960938 21.128906 C 10.429688 20.355469 10.664062 19.5 10.664062 18.5625 C 10.664062 17.632812 10.429688 16.785156 9.960938 16.019531 C 9.5 15.246094 8.882812 14.628906 8.109375 14.167969 C 7.34375 13.699219 6.492188 13.464844 5.554688 13.464844 C 4.617188 13.464844 3.761719 13.699219 2.988281 14.167969 C 2.214844 14.628906 1.597656 15.246094 1.136719 16.019531 C 0.675781 16.785156 0.445312 17.632812 0.445312 18.5625 C 0.445312 19.5 0.675781 20.355469 1.136719 21.128906 C 1.597656 21.902344 2.214844 22.519531 2.988281 22.980469 C 3.761719 23.441406 4.617188 23.671875 5.554688 23.671875 Z M 5.554688 21.832031 C 4.9375 21.832031 4.382812 21.6875 3.890625 21.398438 C 3.398438 21.109375 3.003906 20.71875 2.707031 20.226562 C 2.417969 19.734375 2.273438 19.179688 2.273438 18.5625 C 2.273438 17.953125 2.417969 17.398438 2.707031 16.898438 C 3.003906 16.398438 3.398438 16 3.890625 15.703125 C 4.382812 15.40625 4.9375 15.257812 5.554688 15.257812 C 6.164062 15.257812 6.714844 15.40625 7.207031 15.703125 C 7.707031 16 8.101562 16.398438 8.390625 16.898438 C 8.679688 17.398438 8.824219 17.953125 8.824219 18.5625 C 8.824219 19.179688 8.679688 19.734375 8.390625 20.226562 C 8.101562 20.71875 7.707031 21.109375 7.207031 21.398438 C 6.714844 21.6875 6.164062 21.832031 5.554688 21.832031 Z M 18.457031 23.671875 C 19.386719 23.671875 20.238281 23.441406 21.011719 22.980469 C 21.785156 22.519531 22.402344 21.902344 22.863281 21.128906 C 23.324219 20.355469 23.554688 19.5 23.554688 18.5625 C 23.554688 17.632812 23.324219 16.785156 22.863281 16.019531 C 22.402344 15.246094 21.785156 14.628906 21.011719 14.167969 C 20.238281 13.699219 19.386719 13.464844 18.457031 13.464844 C 17.511719 13.464844 16.652344 13.699219 15.878906 14.167969 C 15.105469 14.628906 14.488281 15.246094 14.027344 16.019531 C 13.574219 16.785156 13.347656 17.632812 13.347656 18.5625 C 13.347656 19.5 13.574219 20.355469 14.027344 21.128906 C 14.488281 21.902344 15.105469 22.519531 15.878906 22.980469 C 16.652344 23.441406 17.511719 23.671875 18.457031 23.671875 Z M 18.457031 21.832031 C 17.839844 21.832031 17.28125 21.6875 16.78125 21.398438 C 16.289062 21.109375 15.898438 20.71875 15.609375 20.226562 C 15.320312 19.734375 15.175781 19.179688 15.175781 18.5625 C 15.175781 17.953125 15.320312 17.398438 15.609375 16.898438 C 15.898438 16.398438 16.289062 16 16.78125 15.703125 C 17.28125 15.40625 17.839844 15.257812 18.457031 15.257812 C 19.066406 15.257812 19.617188 15.40625 20.109375 15.703125 C 20.601562 16 20.992188 16.398438 21.28125 16.898438 C 21.578125 17.398438 21.726562 17.953125 21.726562 18.5625 C 21.726562 19.179688 21.578125 19.734375 21.28125 20.226562 C 20.992188 20.71875 20.601562 21.109375 20.109375 21.398438 C 19.617188 21.6875 19.066406 21.832031 18.457031 21.832031 Z M 18.457031 21.832031 "/>
</g>
</svg>

<svg xmlns="http://www.w3.org/2000/svg" width="24" height="24"><path style="stroke:none;fill-rule:nonzero;fill:#fff;fill-opacity:1" d="M5.555 11.625c.937 0 1.789-.23 2.554-.691A5.352 5.352 0 0 0 9.961 9.07c.469-.77.71-1.652.703-2.554 0-.93-.234-1.782-.703-2.555a5.223 5.223 0 0 0-1.852-1.852 4.858 4.858 0 0 0-2.554-.691c-.938 0-1.793.23-2.567.691a5.223 5.223 0 0 0-1.851 1.852c-.461.773-.7 1.656-.692 2.555 0 .93.23 1.78.692 2.554a5.352 5.352 0 0 0 1.851 1.864c.774.46 1.63.691 2.567.691Zm0-1.852A3.23 3.23 0 0 1 3.89 9.34a3.335 3.335 0 0 1-1.184-1.172 3.179 3.179 0 0 1-.434-1.652c0-.61.145-1.164.434-1.664.297-.5.691-.899 1.184-1.196a3.158 3.158 0 0 1 1.664-.445c.61 0 1.16.148 1.652.445a3.276 3.276 0 0 1 1.617 2.86A3.207 3.207 0 0 1 7.207 9.34c-.5.293-1.074.441-1.652.433Zm12.902 1.852c.93 0 1.781-.23 2.555-.691a5.352 5.352 0 0 0 1.851-1.864c.461-.773.692-1.625.692-2.554 0-.93-.23-1.782-.692-2.555a5.223 5.223 0 0 0-1.851-1.852 4.904 4.904 0 0 0-2.555-.691 4.95 4.95 0 0 0-2.578.691 5.192 5.192 0 0 0-1.852 1.852 4.967 4.967 0 0 0-.68 2.555c0 .93.227 1.78.68 2.554a5.352 5.352 0 0 0 1.852 1.864 4.913 4.913 0 0 0 2.578.691Zm0-1.852a3.272 3.272 0 0 1-1.676-.433 3.24 3.24 0 0 1-1.172-1.172 3.179 3.179 0 0 1-.433-1.652c0-.61.144-1.164.433-1.664.29-.5.68-.899 1.172-1.196a3.198 3.198 0 0 1 1.676-.445c.61 0 1.16.148 1.652.445.493.297.883.696 1.172 1.196.297.5.446 1.054.446 1.664 0 .609-.149 1.16-.446 1.652A3.24 3.24 0 0 1 20.11 9.34c-.5.293-1.07.441-1.652.433ZM5.555 23.672c.937 0 1.789-.23 2.554-.692a5.286 5.286 0 0 0 1.852-1.851c.469-.774.71-1.664.703-2.567 0-.93-.234-1.777-.703-2.542a5.254 5.254 0 0 0-1.852-1.852 4.788 4.788 0 0 0-2.554-.703c-.938 0-1.793.234-2.567.703a5.254 5.254 0 0 0-1.851 1.852c-.461.77-.7 1.648-.692 2.543 0 .937.23 1.792.692 2.566a5.319 5.319 0 0 0 1.851 1.851c.774.461 1.63.692 2.567.692Zm0-1.84a3.23 3.23 0 0 1-1.664-.434 3.335 3.335 0 0 1-1.184-1.171 3.23 3.23 0 0 1-.434-1.665c0-.609.145-1.164.434-1.664.297-.5.691-.898 1.184-1.195a3.158 3.158 0 0 1 1.664-.445c.61 0 1.16.148 1.652.445a3.28 3.28 0 0 1 1.617 2.86c0 .617-.144 1.171-.433 1.664-.29.492-.684.882-1.184 1.171-.5.293-1.07.442-1.652.434Zm12.902 1.84c.93 0 1.781-.23 2.555-.692a5.319 5.319 0 0 0 1.851-1.851c.461-.774.692-1.629.692-2.567 0-.93-.23-1.777-.692-2.542a5.254 5.254 0 0 0-1.851-1.852 4.823 4.823 0 0 0-2.555-.703c-.945 0-1.805.234-2.578.703a5.223 5.223 0 0 0-1.852 1.852 4.888 4.888 0 0 0-.68 2.543c0 .937.227 1.792.68 2.566a5.286 5.286 0 0 0 1.852 1.851 4.95 4.95 0 0 0 2.578.692Zm0-1.84a3.272 3.272 0 0 1-1.676-.434 3.232 3.232 0 0 1-1.605-2.835c0-.61.144-1.165.433-1.665.29-.5.68-.898 1.172-1.195a3.198 3.198 0 0 1 1.676-.445c.61 0 1.16.148 1.652.445.493.297.883.695 1.172 1.195.297.5.446 1.055.446 1.665 0 .617-.149 1.171-.446 1.664a3.24 3.24 0 0 1-1.172 1.171c-.5.293-1.074.442-1.652.434Zm0 0"/></svg>
